X:1
T:Congo River (Blow Boys Blow)
M:4/4
L:1/4
K:D
 A| F F D/2D/2 D/2D/2| E D B, D| E2 F2| G3| B| A F G E| D A, D E| F A E/2E/2 A|\
 ^F3||
